packages/icons/raw/imported/GenericHome.svg

<svg width="32" height="32" viewBox="0 0 32 32" fill="none" xmlns="http://www.w3.org/2000/svg">
<path d="M6.5 16.5237H7H6.5ZM6.5 24.0439H6H6.5ZM24.0385 25.5V25V25.5ZM7.96154 25.5V26H7.96154L7.96154 25.5ZM25.5 16.5238H25H25.5ZM25.5 24.0439H26H25.5ZM24.7266 14.5504L24.3595 14.8899L24.7266 14.5504ZM18.1497 7.43887L17.7826 7.77836L18.1497 7.43887ZM13.8503 7.43887L14.2174 7.77835L13.8503 7.43887ZM7.27339 14.5504L6.9063 14.2109H6.9063L7.27339 14.5504ZM13.0769 18.2194H13.5769H13.0769ZM13.0769 24.7719H12.5769H13.0769ZM18.1923 25.5V25V25.5ZM13.8077 25.5V26V25.5ZM18.9231 18.2195L19.4231 18.2195V18.2195H18.9231ZM18.9231 24.7719H18.4231H18.9231ZM18.1923 17.4914L18.1923 17.9914L18.1923 17.4914ZM13.8077 17.4914L13.8077 17.9914H13.8077L13.8077 17.4914ZM6 16.5237L6 24.0439H7L7 16.5237H6ZM24.0385 25L7.96154 25L7.96154 26L24.0385 26V25ZM25 16.5238V24.0439H26V16.5238H25ZM25.0937 14.2109L18.5168 7.09939L17.7826 7.77836L24.3595 14.8899L25.0937 14.2109ZM13.4832 7.09938L6.9063 14.2109L7.64047 14.8899L14.2174 7.77835L13.4832 7.09938ZM18.5168 7.09939C17.1611 5.63354 14.8389 5.63354 13.4832 7.09938L14.2174 7.77835C15.1772 6.74055 16.8228 6.74055 17.7826 7.77836L18.5168 7.09939ZM26 16.5238C26 15.6665 25.6763 14.8409 25.0937 14.2109L24.3595 14.8899C24.7715 15.3354 25 15.9187 25 16.5238H26ZM7 16.5237C7 15.9186 7.22845 15.3354 7.64047 14.8899L6.9063 14.2109C6.32371 14.8409 6 15.6665 6 16.5237H7ZM6 24.0439C6 25.126 6.87996 26 7.96154 26V25C7.42874 25 7 24.5702 7 24.0439H6ZM24.0385 26C25.12 26 26 25.126 26 24.0439H25C25 24.5702 24.5713 25 24.0385 25V26ZM12.5769 18.2194L12.5769 24.7719H13.5769L13.5769 18.2194H12.5769ZM18.1923 25H13.8077V26H18.1923V25ZM18.4231 18.2195L18.4231 24.7719H19.4231L19.4231 18.2195L18.4231 18.2195ZM18.1923 16.9914L13.8077 16.9914L13.8077 17.9914L18.1923 17.9914L18.1923 16.9914ZM19.4231 18.2195C19.4231 17.5395 18.8703 16.9914 18.1923 16.9914L18.1923 17.9914C18.3215 17.9914 18.4231 18.0953 18.4231 18.2195H19.4231ZM13.5769 18.2194C13.5769 18.0952 13.6785 17.9914 13.8077 17.9914L13.8077 16.9914C13.1297 16.9914 12.5769 17.5395 12.5769 18.2194H13.5769ZM12.5769 24.7719C12.5769 25.4519 13.1297 26 13.8077 26V25C13.6785 25 13.5769 24.8961 13.5769 24.7719H12.5769ZM18.1923 26C18.8703 26 19.4231 25.4519 19.4231 24.7719H18.4231C18.4231 24.8961 18.3215 25 18.1923 25V26Z" fill="black"/>
</svg>

<svg width="32" height="32" fill="none" xmlns="http://www.w3.org/2000/svg"><path d="M6.5 16.524H7h-.5Zm0 7.52H6h.5ZM24.038 25.5V25v.5Zm-16.076 0v.5-.5ZM25.5 16.524H25h.5Zm0 7.52h.5-.5Zm-.773-9.494-.367.34.367-.34ZM18.15 7.44l-.367.34.367-.34Zm-4.3 0 .367.34-.367-.34ZM7.273 14.55l-.367-.34.367.34Zm5.804 3.67h.5-.5Zm0 6.552h-.5.5Zm5.115.728V25v.5Zm-4.384 0v.5-.5Zm5.115-7.28h.5-.5Zm0 6.552h-.5.5Zm-.73-7.28v.5-.5Zm-4.385 0v.5-.5ZM6 16.523v7.52h1v-7.52H6ZM24.038 25H7.962v1h16.076v-1ZM25 16.524v7.52h1v-7.52h-1Zm.094-2.313-6.577-7.112-.734.68 6.576 7.11.735-.678Zm-11.61-7.112-6.578 7.112.734.679 6.577-7.112-.734-.679Zm5.033 0a3.43 3.43 0 0 0-5.034 0l.734.68a2.43 2.43 0 0 1 3.566 0l.734-.68ZM26 16.524c0-.858-.324-1.683-.906-2.313l-.735.679c.412.445.641 1.029.641 1.634h1Zm-19 0c0-.605.228-1.189.64-1.634l-.734-.68A3.406 3.406 0 0 0 6 16.525h1Zm-1 7.52C6 25.126 6.88 26 7.962 26v-1A.959.959 0 0 1 7 24.044H6ZM24.038 26A1.959 1.959 0 0 0 26 24.044h-1a.959.959 0 0 1-.962.956v1Zm-11.461-7.78v6.552h1v-6.553h-1ZM18.192 25h-4.384v1h4.384v-1Zm.231-6.78v6.552h1V18.22h-1Zm-.23-1.229h-4.385v1h4.384v-1Zm1.23 1.229a1.23 1.23 0 0 0-1.23-1.229v1c.128 0 .23.104.23.229h1Zm-5.846 0a.23.23 0 0 1 .23-.229v-1a1.23 1.23 0 0 0-1.23 1.228h1Zm-1 6.552c0 .68.553 1.228 1.23 1.228v-1a.23.23 0 0 1-.23-.228h-1ZM18.192 26a1.23 1.23 0 0 0 1.231-1.228h-1a.23.23 0 0 1-.23.228v1Z" fill="#000"/></svg>
